public/avatar/shoe/26.svg

<svg xmlns:xlink="http://www.w3.org/1999/xlink" height="38.3" width="36.05" xmlns="http://www.w3.org/2000/svg"><use height="16.9" transform="translate(8 11.15)" width="23.85" xlink:href="#a"/><defs><g id="a"><path d="M4.25-1.85 5.4-.75 3.95.3 2.9 1.9q-.4.85-.55 1.8l-.1.85-.05 1.2.1.45q.1.6.6 1L-1 8.45l-.6.2-1.65.35-2.05.3v-.1q.85-2.7-.45-5.3-1.2-2.2-3.5-3l-.2-.1.2.05.4-.25 5.1-2.55 1.2.95q3.55.9 6.8-.85" fill="#c00" fill-rule="evenodd" transform="translate(15.8 3.7)"/><path d="M4.25-1.85Q1-.1-2.55-1l-1.2-.95 1.4-.65q3.4-1.45 6.6.75M-9.45.8l.2.1q2.3.8 3.5 3 1.3 2.6.45 5.3l-.05.1-3.8.4q-3.2-.05-6-1.75v-.1q-.45-1.95.35-4.05.7-2.15 5.35-3M2.9 7.2q-.5-.4-.6-1l-.1-.45.05-1.2.1-.85q.15-.95.55-1.8L3.95.3 5.4-.75Q7.85.85 7.35 4.3L5.8 5.75l-.9.6-2 .85m-8.25 2.1v-.05.05" fill="#900" fill-rule="evenodd" transform="translate(15.8 3.7)"/><path d="m-5.3 9.3 2.05-.3 1.65-.35.6-.2L2.9 7.2l2-.85.9-.6L7.35 4.3q.35 2.9.1 3.2l-.1.2L5.6 9.15 2.8 10.5l-3.75 1.15-.55.15-3.8.7q-5.2.65-8.95-.75l-.55-.3q-.3-.3-.35-3.5 2.8 1.7 6 1.75l3.8-.4h.05M5.6 7.15v2-2m-3 1.5q-.1.85.2 1.85-.3-1-.2-1.85m-17.7-.6-.05-.1.05.1M-1.2 9.6l.25 2.05-.25-2.05m-4.15 1 .05 1.9-.05-1.9" fill="#fff" fill-rule="evenodd" transform="translate(15.8 3.7)"/><path d="M-5.3 9.2v.1h-.05l.05-.1" fill="#93c" fill-rule="evenodd" transform="translate(15.8 3.7)"/><path d="M-15.15 7.95h-.05l.05-.1v.1" fill="#8f8e01" fill-rule="evenodd" transform="translate(15.8 3.7)"/><path d="m5.4-.75-1.15-1.1q-3.2-2.2-6.6-.75l-1.4.65M5.4-.75Q7.85.85 7.35 4.3m-22.5 3.55q-.45-1.95.35-4.05.7-2.15 5.35-3m-5.7 7.15.05.1" fill="none" stroke="#900" stroke-linecap="round" stroke-linejoin="round" transform="translate(15.8 3.7)"/><path d="M-15.15 7.95h-.05l.05-.1v.1" fill="none" stroke="#333" stroke-linecap="round" stroke-linejoin="round" transform="translate(15.8 3.7)"/><path d="M7.35 4.3q.35 2.9.1 3.2l-.1.2L5.6 9.15 2.8 10.5l-3.75 1.15-.55.15-3.8.7q-5.2.65-8.95-.75l-.55-.3q-.3-.3-.35-3.5M2.8 10.5q-.3-1-.2-1.85m3 .5v-2m-6.55 4.5L-1.2 9.6m-4.1 2.9-.05-1.9" fill="none" stroke="#666" stroke-linecap="round" stroke-linejoin="round" transform="translate(15.8 3.7)"/><path d="M-3.75-1.95-8.85.6l-.4.25" fill="none" stroke="#900" stroke-linecap="round" stroke-linejoin="round" transform="translate(15.8 3.7)"/><path d="m-3.2-2.5-.45-.15-.8.15-.5.6.1.8m-.75.35L-7-1.3l-.8.1-.5.65q-.15.4.1.75m-.65.65-1.2-.45-.8.1-.55.6.1.8" fill="none" stroke="#900" stroke-linecap="round" stroke-linejoin="round" transform="translate(15.8 3.7)"/><path d="m-7.05 1.8.05.05h-.05V1.8" fill="#fc0" fill-rule="evenodd" transform="translate(15.8 3.7)"/><path d="m-7.5-1.05.8-.1Q-5.2-.7-4 .1q1.55 1 2.6 2.75.2.35.1.75l-.45.7-.8.1q-.45-.15-.7-.5-.8-1.3-1.9-2.05-.95-.6-2.15-.95l-.65-.55-.05-.8.5-.6m4.15-1.45q1.4.4 2.55 1.15Q.8-.4 1.9 1.4q.25.35.15.8l-.5.65-.8.15-.65-.5Q-.7 1.15-1.85.4h-.05l-2-.85q-.45-.1-.65-.5l-.15-.8.55-.65.8-.1m-3.7 4.35q1.5.95 2.55 2.65.25.4.15.8l-.5.65-.8.15-.65-.5q-.8-1.3-1.9-2-.95-.65-2.2-1.05l-.6-.5q-.25-.4-.1-.75l.5-.65.8-.1Q-8.25 1-7.05 1.8v.05" fill="#fff" fill-rule="evenodd" transform="translate(15.8 3.7)"/></g></defs></svg>

<?xml version="1.0" encoding="UTF-8" standalone="no"?>
<svg xmlns:xlink="http://www.w3.org/1999/xlink" height="38.3px" width="36.05px" xmlns="http://www.w3.org/2000/svg">
  <g transform="matrix(1.0, 0.0, 0.0, 1.0, 23.8, 14.85)">
    <use height="16.9" transform="matrix(1.0, 0.0, 0.0, 1.0, -15.8, -3.7)" width="23.85" xlink:href="#shape0"/>
  </g>
  <defs>
    <g id="shape0" transform="matrix(1.0, 0.0, 0.0, 1.0, 15.8, 3.7)">
      <path d="M4.25 -1.85 L5.4 -0.75 3.95 0.3 2.9 1.9 Q2.5 2.75 2.35 3.7 L2.25 4.55 2.2 5.75 2.3 6.2 Q2.4 6.8 2.9 7.2 L-1.0 8.45 -1.6 8.65 -3.25 9.0 -5.3 9.3 -5.3 9.2 Q-4.45 6.5 -5.75 3.9 -6.95 1.7 -9.25 0.9 L-9.45 0.8 -9.25 0.85 -8.85 0.6 -3.75 -1.95 -2.55 -1.0 Q1.0 -0.1 4.25 -1.85" fill="#cc0000" fill-rule="evenodd" stroke="none"/>
      <path d="M4.25 -1.85 Q1.0 -0.1 -2.55 -1.0 L-3.75 -1.95 -2.35 -2.6 Q1.05 -4.05 4.25 -1.85 M-9.45 0.8 L-9.25 0.9 Q-6.95 1.7 -5.75 3.9 -4.45 6.5 -5.3 9.2 L-5.35 9.3 -9.15 9.7 Q-12.35 9.65 -15.15 7.95 L-15.15 7.85 Q-15.6 5.9 -14.8 3.8 -14.1 1.65 -9.45 0.8 M2.9 7.2 Q2.4 6.8 2.3 6.2 L2.2 5.75 2.25 4.55 2.35 3.7 Q2.5 2.75 2.9 1.9 L3.95 0.3 5.4 -0.75 Q7.85 0.85 7.35 4.3 L5.8 5.75 4.9 6.35 2.9 7.2 M-5.35 9.3 L-5.35 9.25 -5.35 9.3" fill="#990000" fill-rule="evenodd" stroke="none"/>
      <path d="M-5.3 9.3 L-3.25 9.0 -1.6 8.65 -1.0 8.45 2.9 7.2 4.9 6.35 5.8 5.75 7.35 4.3 Q7.7 7.2 7.45 7.5 L7.35 7.7 5.6 9.15 2.8 10.5 -0.95 11.65 -1.5 11.8 -5.3 12.5 Q-10.5 13.15 -14.25 11.75 L-14.8 11.45 Q-15.1 11.15 -15.15 7.95 -12.35 9.65 -9.15 9.7 L-5.35 9.3 -5.3 9.3 M5.6 7.15 L5.6 9.15 5.6 7.15 M2.6 8.65 Q2.5 9.5 2.8 10.5 2.5 9.5 2.6 8.65 M-15.1 8.05 L-15.15 7.95 -15.1 8.05 M-1.2 9.6 L-0.95 11.65 -1.2 9.6 M-5.35 10.6 L-5.3 12.5 -5.35 10.6" fill="#ffffff" fill-rule="evenodd" stroke="none"/>
      <path d="M-5.3 9.2 L-5.3 9.3 -5.35 9.3 -5.3 9.2" fill="#9933cc" fill-rule="evenodd" stroke="none"/>
      <path d="M-15.15 7.95 L-15.2 7.95 -15.15 7.85 -15.15 7.95" fill="#8f8e01" fill-rule="evenodd" stroke="none"/>
      <path d="M5.4 -0.75 L4.25 -1.85 Q1.05 -4.05 -2.35 -2.6 L-3.75 -1.95 M5.4 -0.75 Q7.85 0.85 7.35 4.3 M-15.15 7.85 Q-15.6 5.9 -14.8 3.8 -14.1 1.65 -9.45 0.8 M-15.15 7.95 L-15.1 8.05" fill="none" stroke="#990000" stroke-linecap="round" stroke-linejoin="round" stroke-width="1.0"/>
      <path d="M-15.15 7.95 L-15.2 7.95 -15.15 7.85 -15.15 7.95" fill="none" stroke="#333333" stroke-linecap="round" stroke-linejoin="round" stroke-width="1.0"/>
      <path d="M7.35 4.3 Q7.7 7.2 7.45 7.5 L7.35 7.7 5.6 9.15 2.8 10.5 -0.95 11.65 -1.5 11.8 -5.3 12.5 Q-10.5 13.15 -14.25 11.75 L-14.8 11.45 Q-15.1 11.15 -15.15 7.95 M2.8 10.5 Q2.5 9.5 2.6 8.65 M5.6 9.15 L5.6 7.15 M-0.95 11.65 L-1.2 9.6 M-5.3 12.5 L-5.35 10.6" fill="none" stroke="#666666" stroke-linecap="round" stroke-linejoin="round" stroke-width="1.0"/>
      <path d="M-3.75 -1.95 L-8.85 0.6 -9.25 0.85" fill="none" stroke="#990000" stroke-linecap="round" stroke-linejoin="round" stroke-width="1.0"/>
      <path d="M-3.2 -2.5 L-3.65 -2.65 -4.45 -2.5 -4.95 -1.9 -4.85 -1.1 M-5.6 -0.75 L-7.0 -1.3 -7.8 -1.2 -8.3 -0.55 Q-8.45 -0.15 -8.2 0.2 M-8.85 0.85 L-10.05 0.4 -10.85 0.5 -11.4 1.1 -11.3 1.9" fill="none" stroke="#990000" stroke-linecap="round" stroke-linejoin="round" stroke-width="1.0"/>
      <path d="M-7.05 1.8 L-7.0 1.85 -7.05 1.85 -7.05 1.8" fill="#ffcc00" fill-rule="evenodd" stroke="none"/>
      <path d="M-7.5 -1.05 L-6.7 -1.15 Q-5.2 -0.7 -4.0 0.1 -2.45 1.1 -1.4 2.85 -1.2 3.2 -1.3 3.6 L-1.75 4.3 -2.55 4.4 Q-3.0 4.25 -3.25 3.9 -4.05 2.6 -5.15 1.85 -6.1 1.25 -7.3 0.9 L-7.95 0.35 -8.0 -0.45 -7.5 -1.05 M-3.35 -2.5 Q-1.95 -2.1 -0.8 -1.35 0.8 -0.4 1.9 1.4 2.15 1.75 2.05 2.2 L1.55 2.85 0.75 3.0 0.1 2.5 Q-0.7 1.15 -1.85 0.4 L-1.9 0.4 -3.9 -0.45 Q-4.35 -0.55 -4.55 -0.95 L-4.7 -1.75 -4.15 -2.4 -3.35 -2.5 M-7.05 1.85 Q-5.55 2.8 -4.5 4.5 -4.25 4.9 -4.35 5.3 L-4.85 5.95 -5.65 6.1 -6.3 5.6 Q-7.1 4.3 -8.2 3.6 -9.15 2.95 -10.4 2.55 L-11.0 2.05 Q-11.25 1.65 -11.1 1.3 L-10.6 0.65 -9.8 0.55 Q-8.25 1.0 -7.05 1.8 L-7.05 1.85" fill="#ffffff" fill-rule="evenodd" stroke="none"/>
    </g>
  </defs>
</svg>
